X: 45
T: No_141_The_Approach_of_the_Thunderbirds.krn
%%abc-version 2.0
%%abcx-abcm2ps-target-version 5.9.1 (29 Sep 2008)
%%abc-creator hum2abc beta
%%abcx-conversion-date 2020/08/10 18:54:56
%%gracespace 0 6 6
%%humdrum-veritas 3000361094
%%humdrum-veritas-data 3330413184
%%linebreak <none>
%%barnumbers 0
L: 1/8
M: 2/4
%%staves {1 2}
V: 1 clef=bass
V: 2 clef=bass
K: G
[V:1] [K:clef=bass][M:2/4]E>EE2 | 
[V:2] [K:clef=bass][M:2/4]G,,G,, G,,G,, | 
[V:1] E3E | 
[V:2] G,,G,, G,,G,, | 
[V:1] DD DD ||  
[V:2] z4 ||  
[V:1] [M:3/4]DB, B,B,/>B,/ B,D ||  
[V:2] [M:3/4]z6 ||  
[V:1] [M:2/4]D3D- | 
[V:2] [M:2/4]z4 | 
[V:1] DB, B,B,- ||  
[V:2] z4 ||  
[V:1] [M:3/4]B,2>B,2 B,D ||  
[V:2] [M:3/4]z6 ||  
[V:1] [M:2/4]D3D/B,/ ||  
[V:2] [M:2/4]z4 ||  
[V:1] [M:3/4]B,/G,/G,/G,< E,E,/ E,E, ||  
[V:2] [M:3/4]z6 ||  
[V:1] [M:2/4]D,3D, ||  
[V:2] [M:2/4]z4 ||  
[V:1] [M:3/4]D,B,, B,,B,,/>E,/ E,E, ||  
[V:2] [M:3/4]z6 ||  
[V:1] [M:2/4]D,3D, ||  
[V:2] [M:2/4]z4 ||  
[V:1] [M:3/4]D,B,, B,,B,,/>D,/ D,D, | 
[V:2] [M:3/4]z6 | 
[V:1] B,,6 |]  
[V:2] z6 |]  


